X:763
T:Texas Schottische
S:Colin Hume's website,  colinhume.com  - chords can also be printed below the stave.
Q:1/2=80
M:2/2
%%MIDI ratio 3 1
B:Transcribed from https://www.youtube.com/watch?v=CZECJHm7tDM
K:D
P:A
|: (3FG^G A>B A2 f2 | (3FG^G A>B A2 f2 |\
(3gag (3fgf (3efe (3ded | (3cdc (3BcB (3ABA (3GFE |
(3FG^G A>B A2 f2 | (3FG^G A>B A2 f2 |\
(3gag (3fgf (3efe (3ded |1 c>AB>c d2D2 :|2 c>AB>c d2 ||
P:B
|: e>e | e>BB>d d>cc>e | e>BB>d c2e>e |\
e>BB>d d>cc>e |1 (3efe (3dcB A2 :|2 (3efe (3dcB (3ABA (3GFE |]

